!!!OTL: 2134. Fromme Vorsaetze fuer die sieben Wochentage.
!!!ARE: Europa, Mitteleuropa, Deutschland, Baden, Freiburg; Horben
!!!SCT: E2134
!!!TXL: @@DE
!!!YEM: Copyright 1995, estate of Helmut Schaffrath.
**kern	**text
*ICvox	*
*M4/4	*
*met(c)	*
*k[b-e-a-]	*
*E-:	*
!LO:TX:a:t=Langſam.	!
!LO:TX:a:t=Aus der Umgegend von Freiburg im Br. und aus Horben in Baden.	!
{8e-L	Am
8gJ	.
=1	=1
4b-	Mon-
4b-	-tag_da
8b-L	fängt
8ee-J	.
8ee-L	die
8ccJ	.
=2	=2
(8ccqq	.
4b-)	Wochen
4b-	.
4b-	an,
8r}	.
{8g	da
=3	=3
(8g	will
8f)	ich
8f	meinen
8f	.
8fL	Gott
8ccJ	.
8b-L	im
8a-J	.
=4	=4
(8a-qq	.
4g)	Her-
4g	-ʒen
4g	han.
4r}	.
=5||	=5||
{(>4.f	A-
8g)	.
4a-	-ve
4f	Ma-
=6	=6
(>4.g	-ri-
8a-)	.
4b-/	-a,
4r}	.
=7	=7
{(4.ee-	A-
8ff)	.
4gg	-ve
4gg	Ma-
=8	=8
2ff	-ri-
4ee-;}	-a!
==	==
!!!AGN: geistliches Lied, Curiosum, Moral
!!!ONB: ESAC (Essen Associative Code) Database: ERK3
!!!AMT: simple quadruple
!!!AIN: vox
!!!EED: Helmut Schaffrath
!!!EEV: 1.0
!!!RDF**kern: >=above
!!!GTL: 5. Curiosa geistlicher Dichtung des Mittelalters.
!!!URL-scan: https://rosdok.uni-rostock.de/mcrviewer/recordIdentifier/rosdok_ppn745177999/iview2/phys_0837.iview2?x=126.49168410953416&y=1592.6582721252926&scale=0.7014306698522895&rotation=0&layout=singlePageLayout
!!!ENC: Anna Maria Matuszewska
!!!EEV: 2025/14/01
*-	*-
